svgs/readera_premium.svg

<svg xmlns="http://www.w3.org/2000/svg" viewBox="0 0 192 192"><path d="M44.922 49.517h32.836M44.697 63.598h32.881M44.697 77.452h32.881M44.697 91.668h32.881M27.22 31.06v113.183h50.087c8.063 0 19.324 7.897 19.324 7.897L96.27 37.152a24.8 24.8 0 0 0-17.341-7.13Zm99.769 113.183h-11.035c-8.063 0-19.323 7.897-19.323 7.897l.405-114.988a24.8 24.8 0 0 1 17.251-7.13h12.612m13.918.406 25.224.406v113.409h-25.224" fill="none" stroke="#000" stroke-width="8" stroke-linecap="round" stroke-linejoin="round"/><path d="M140.817 155.705H175.5V36.836h-7.162m-141.929.406H16.5v118.373h68.284a46.709 46.709 0 0 0 11.396 2.618 42.15 42.15 0 0 0 10.72-2.528h20.089M126.989 22.891v146.218l6.712-4.739 7.116 4.513V23.297Z" fill="none" stroke="#000" stroke-width="8" stroke-linecap="round" stroke-linejoin="round"/></svg>

<svg
    xmlns="http://www.w3.org/2000/svg"
    viewBox="0 0 192 192"
    id="vector">
    <path
        id="path"
        d="M 44.922 49.517 L 77.758 49.517 M 44.697 63.598 L 77.578 63.598 M 44.697 77.452 L 77.578 77.452 M 44.697 91.668 L 77.578 91.668 M 27.22 31.06 L 27.22 144.243 L 77.307 144.243 C 85.37 144.243 96.631 152.14 96.631 152.14 L 96.27 37.152 C 91.644 32.597 85.415 30.036 78.929 30.022 Z M 126.989 144.243 L 115.954 144.243 C 107.891 144.243 96.631 152.14 96.631 152.14 L 97.036 37.152 C 101.64 32.619 107.832 30.059 114.287 30.022 L 126.899 30.022 M 140.817 30.428 L 166.041 30.834 L 166.041 144.243 L 140.817 144.243"
        fill="none"
        stroke="#000000"
        stroke-width="8"
        stroke-linecap="round"
        stroke-linejoin="round"/>
    <path
        id="path_1"
        d="M 140.817 155.705 L 175.5 155.705 L 175.5 36.836 L 168.338 36.836 M 26.409 37.242 L 16.5 37.242 L 16.5 155.615 L 84.784 155.615 C 88.459 156.962 92.287 157.841 96.18 158.233 C 99.848 157.863 103.452 157.013 106.9 155.705 L 126.989 155.705"
        fill="none"
        stroke="#000000"
        stroke-width="8"
        stroke-linecap="round"
        stroke-linejoin="round"/>
    <path
        id="path_2"
        d="M 126.989 22.891 L 126.989 169.109 L 133.701 164.37 L 140.817 168.883 L 140.817 23.297 Z"
        fill="none"
        stroke="#000000"
        stroke-width="8"
        stroke-linecap="round"
        stroke-linejoin="round"/>
</svg>
